X:1
T:The King’s Business
T:The King’s Business
T:Flora H. Cassel
T:Elijah T. Cassel, 1902
T:PUBLIC DOMAIN
T:PUBLIC DOMAIN
C:Flora H. Cassel
Z:Elijah T. Cassel, 1902
Z:PUBLIC DOMAIN
%%score ( 1 2 ) ( 3 4 )
L:1/8
Q:1/4=100
M:4/4
K:Eb
V:1 treble nm="Treble"
V:2 treble 
V:3 bass nm="Bass"
V:4 bass 
V:1
 B, C [B,E] | [EG]3/2 [EG]/ [EG]3 [EG] [B,F] [B,E] | [DA]3/2 [DA]/ [DA]3 [FA] [EG] [DF] | %3
w: 1.~I am a|stran- ger here, with- in a|for- eign land; My home is|
w: 2.~This is the|King’s com- mand: that all men,|eve- ry- where, Re- pent and|
w: 3.~My home is|bright- er far than Shar- on’s|ros- y plain, E- ter- nal|
 [DA]3/2 [DA]/ [DA]3 [FA] [EG] [DF] | [EB]3/2 [DB]/ [EB]3 | B, C [B,E] | %6
w: far a- way, up- on a|gold- en strand;|Am- bas- sa-|
w: turn a- way from sin’s se-|duc- tive snare;|That all who|
w: life and joy thro’- out its|vast do- main;|My Sov- ’reign|
 [EG]3/2 [EG]/ [EG]3 [EG] [DF] E | [Ee]3/2 [Ee]/ [Ee]3 [Ee] [Ed] [Ec] | [EB] [Dc] [EG]4 [DF]2 | %9
w: dor to be of realms be-|yond the sea, I’m here on|busi- ness for my|
w: will o- bey, with Him shall|reign for aye, And that’s my|busi- ness for my|
w: bids me tell how mor- tals|there may dwell, And that’s my|busi- ness for my|
 [B,E]4 [B,E] ||"^Refrain" [GB] [GB] [GB] | [Ad]4 [Ad] [Ad] [Ac] [FB] | [Ee]4 [Ee] [EG] [DF] [EG] | %13
w: King. *|This is the|mes- _ sage that I|bring, * A mes- sage|
w: King. *||||
w: King. *||||
 [DA] [EB] [Fd]4 [Ec]2 | [DB]4 [DB] | [DB] [EB] [FB] | [EG]3/2 [EG]/ [EG]3 [EG] [DF] E | %17
w: an- gels fain would|sing: *|“Oh, be ye|re- con- ciled,” Thus saith my|
w: ||||
w: ||||
 [Ee]3/2 [Ee]/ [Ee]3 [Ee] [Ed] [Ec] | [EB] [Dc] [EG]4 [DF]2 | [B,E]4 [B,E] |] %20
w: Lord and King, “Oh, be ye|re- con- ciled to|God.” *|
w: |||
w: |||
V:2
 B, C z | x8 | x8 | x8 | z2 z3 | B, C z | z2 z3 z z E | x8 | x8 | x5 || x3 | x8 | x8 | x8 | x5 | %15
 x3 | z2 z3 z z E | x8 | x8 | x5 |] %20
V:3
 [E,G,] [E,A,] [E,G,] | [E,B,]3/2 [E,B,]/ [E,B,]3 [E,B,] [E,A,] [E,G,] | %2
 [B,,B,]3/2 [B,,B,]/ [B,,B,]3 [B,,B,] [B,,B,] [B,,B,] | %3
 [B,,B,]3/2 [B,,B,]/ [B,,B,]3 [B,,B,] [B,,B,] [A,B,] | [G,B,]3/2 [F,A,]/ [E,G,]3 | %5
 [E,G,] [E,A,] [E,G,] | [E,B,]3/2 [E,B,]/ [E,B,]3 B, [A,B,] [G,B,] | %7
 [A,C]3/2 [A,C]/ [A,C]3 [A,,C] [A,,B,] [A,,A,] | [B,,G,] [B,,A,] [B,,B,]4 [B,,A,]2 | %9
 [E,G,]4 [E,G,] || [E,B,] [E,B,] [E,B,] | [B,,B,]4 [B,,B,] [B,,B,] [B,,B,] [A,B,] | %12
 [G,B,]4 [G,B,] B, [A,B,] [G,B,] | [F,B,] [G,B,] [F,B,]4 [F,=A,]2 | [B,,B,]4 [B,,B,] | %15
 [B,,B,] [C,B,] [D,B,] | [E,B,]3/2 [E,B,]/ [E,B,]3 B, [A,B,] [G,_D] | %17
 [A,C]3/2 [A,C]/ [A,C]3 [A,,C] [A,,B,] [A,,A,] | [B,,G,] [B,,A,] [B,,B,]4 [B,,A,]2 | %19
 [E,G,]4 [E,G,] |] %20
V:4
 x3 | x8 | x8 | x8 | x5 | x3 | z2 z3 B, z2 | x8 | x8 | x5 || x3 | x8 | z4 z B, z2 | x8 | x5 | x3 | %16
 z2 z3 B, z2 | x8 | x8 | x5 |] %20

